src/WeatherTwentyOne/Resources/Images/fluent_weather_snow_20_filled.svg

<svg width="40" height="40" viewBox="0 0 40 40" fill="none" xmlns="http://www.w3.org/2000/svg">
<path d="M16.7385 30C16.9996 30 17.2501 30.1054 17.4347 30.2929C17.6194 30.4804 17.7231 30.7348 17.7231 31C17.7231 31.2652 17.6194 31.5196 17.4347 31.7071C17.2501 31.8946 16.9996 32 16.7385 32C16.4773 32 16.2269 31.8946 16.0423 31.7071C15.8576 31.5196 15.7539 31.2652 15.7539 31C15.7539 30.7348 15.8576 30.4804 16.0423 30.2929C16.2269 30.1054 16.4773 30 16.7385 30ZM22.6462 30C22.9073 30 23.1578 30.1054 23.3424 30.2929C23.5271 30.4804 23.6308 30.7348 23.6308 31C23.6308 31.2652 23.5271 31.5196 23.3424 31.7071C23.1578 31.8946 22.9073 32 22.6462 32C22.385 32 22.1346 31.8946 21.9499 31.7071C21.7653 31.5196 21.6616 31.2652 21.6616 31C21.6616 30.7348 21.7653 30.4804 21.9499 30.2929C22.1346 30.1054 22.385 30 22.6462 30ZM13.7846 28C14.0458 28 14.2962 28.1054 14.4809 28.2929C14.6655 28.4804 14.7693 28.7348 14.7693 29C14.7693 29.2652 14.6655 29.5196 14.4809 29.7071C14.2962 29.8946 14.0458 30 13.7846 30C13.5235 30 13.2731 29.8946 13.0884 29.7071C12.9038 29.5196 12.8 29.2652 12.8 29C12.8 28.7348 12.9038 28.4804 13.0884 28.2929C13.2731 28.1054 13.5235 28 13.7846 28V28ZM19.6923 28C19.9535 28 20.2039 28.1054 20.3886 28.2929C20.5732 28.4804 20.6769 28.7348 20.6769 29C20.6769 29.2652 20.5732 29.5196 20.3886 29.7071C20.2039 29.8946 19.9535 30 19.6923 30C19.4312 30 19.1808 29.8946 18.9961 29.7071C18.8115 29.5196 18.7077 29.2652 18.7077 29C18.7077 28.7348 18.8115 28.4804 18.9961 28.2929C19.1808 28.1054 19.4312 28 19.6923 28ZM25.6 28C25.8612 28 26.1116 28.1054 26.2963 28.2929C26.4809 28.4804 26.5846 28.7348 26.5846 29C26.5846 29.2652 26.4809 29.5196 26.2963 29.7071C26.1116 29.8946 25.8612 30 25.6 30C25.3389 30 25.0884 29.8946 24.9038 29.7071C24.7191 29.5196 24.6154 29.2652 24.6154 29C24.6154 28.7348 24.7191 28.4804 24.9038 28.2929C25.0884 28.1054 25.3389 28 25.6 28ZM19.6923 8C24.5465 8 27.2995 11.148 27.6992 14.948H27.8213C30.9445 14.948 33.4769 17.422 33.4769 20.474C33.4769 23.526 30.9445 26 27.8213 26H11.5633C8.44015 26 5.90771 23.526 5.90771 20.474C5.90771 17.534 8.25504 15.132 11.2187 14.958L11.6854 14.948C12.0891 11.122 14.8382 8 19.6923 8Z" fill="url(#paint0_linear)"/>
<defs>
<linearGradient id="paint0_linear" x1="10.6155" y1="12.3391" x2="24.4658" y2="27.2535" gradientUnits="userSpaceOnUse">
<stop offset="0.10243" stop-color="#28C2D1"/>
<stop offset="0.925347" stop-color="#4931DE"/>
</linearGradient>
</defs>
</svg>

<svg width="40" height="40" fill="none" xmlns="http://www.w3.org/2000/svg">
    <path
        d="M16.738 30c.262 0 .512.105.697.293a1.008 1.008 0 010 1.414.977.977 0 01-1.393 0 1.008 1.008 0 010-1.414.977.977 0 01.696-.293zm5.908 0c.261 0 .512.105.696.293a1.008 1.008 0 010 1.414.977.977 0 01-1.392 0 1.008 1.008 0 010-1.414.977.977 0 01.696-.293zm-8.861-2c.26 0 .511.105.696.293a1.008 1.008 0 010 1.414.977.977 0 01-1.393 0 1.008 1.008 0 010-1.414.977.977 0 01.697-.293zm5.907 0c.261 0 .512.105.697.293a1.008 1.008 0 010 1.414.977.977 0 01-1.393 0 1.008 1.008 0 010-1.414.977.977 0 01.696-.293zm5.908 0c.261 0 .512.105.696.293a1.008 1.008 0 010 1.414.977.977 0 01-1.392 0 1.008 1.008 0 010-1.414A.977.977 0 0125.6 28zM19.692 8c4.855 0 7.607 3.148 8.007 6.948h.122c3.123 0 5.656 2.474 5.656 5.526 0 3.052-2.532 5.526-5.656 5.526H11.563c-3.123 0-5.655-2.474-5.655-5.526 0-2.94 2.347-5.342 5.31-5.516l.467-.01C12.09 11.122 14.838 8 19.692 8z"
        fill="url(#prefix__paint0_linear)" />
    <defs>
        <linearGradient id="prefix__paint0_linear" x1="10.616" y1="12.339" x2="24.466" y2="27.253"
            gradientUnits="userSpaceOnUse">
            <stop offset=".102" stop-color="#28C2D1" />
            <stop offset=".925" stop-color="#4931DE" />
        </linearGradient>
    </defs>
</svg>
